X: 253
%
U:~=!turn!
T: The Irish Washerwoman
C:
O:Scotland
B:Keith Norman MacDonald : "The Skye collection of the best reels & strathspeys extant" : 1887
Z:Ralph Palmer
R:Jig
M:6/8
L:1/8
K:G
d/c/ | BGG DGG | BGB dcB | {/B}cAA EAA | {/B}cAc edc | BGG DGG | BGB dcB | {/B}cBc Adc | BGG G2 ::
d | gdg gdg | gdg bag | =fcf fcf | =fcf agf | egg dgg | cgg Bgg | {/B}cBc Adc | BGG G2 :|


